X: 24257
T: Lord Seaforth
R: strathspey
M: 4/4
K: Gmajor
M:C|
c|BGAG BGAB|cABG E/E/E EA|GEDE Gage|1 dBAB !>!(DG) G:|2 dBAB G/G/G G2||
ef|g2dg egdB|cA (3BAG E2 ef|g2 dg egdB|AGAB !>!(DG) fa|
gdBd gdBd|ceBd AGEF|GEDE Gage|dBAB G/G/G G2||

